azure-patterns/svg-cost-management.svg

<svg xmlns="http://www.w3.org/2000/svg" viewBox="0 0 134 150">
                                
                            
  <path d="M62.6663 1.14708L4.43723 34.3125C1.69327 35.8755 0 38.794 0 41.9567V108.043C0 111.206 1.69327 114.124 4.43723 115.687L62.6663 148.853C65.3524 150.382 68.6445 150.382 71.3337 148.853L129.563 115.687C132.307 114.124 134 111.206 134 108.043V41.9567C134 38.794 132.307 35.8755 129.563 34.3125L71.3337 1.14708C68.6445 -0.382361 65.3555 -0.382361 62.6663 1.14708Z" fill="#7FBA00"></path>
  <path opacity="0.4" d="M89.8592 11.7006L71.3306 1.14708C68.6445 -0.382361 65.3524 -0.382361 62.6633 1.14708L4.43723 34.3125C1.69327 35.8755 0 38.794 0 41.9567V108.043C0 111.206 1.69327 114.124 4.43723 115.687L43.9337 138.183L89.8592 11.7006Z" fill="#B8D432"></path>
  <path d="M67.0003 31.9556C71.878 31.9556 75.8321 27.992 75.8321 23.1026C75.8321 18.2132 71.878 14.2495 67.0003 14.2495C62.1226 14.2495 58.1685 18.2132 58.1685 23.1026C58.1685 27.992 62.1226 31.9556 67.0003 31.9556Z" fill="white"></path>
  <path d="M67.0003 135.75C71.878 135.75 75.8321 131.787 75.8321 126.897C75.8321 122.008 71.878 118.044 67.0003 118.044C62.1226 118.044 58.1685 122.008 58.1685 126.897C58.1685 131.787 62.1226 135.75 67.0003 135.75Z" fill="white"></path>
  <path d="M97.5183 92.2328C97.5183 105.186 84.7031 114.585 67.0425 114.585C51.5168 114.585 41.7835 108.721 37.3188 96.6624L52.4761 93.8019C54.4374 98.0484 58.768 102.896 68.3064 102.896C77.8508 102.896 81.4079 97.1509 81.4079 93.5303C81.4079 85.999 72.3477 83.3889 68.4495 82.6166C51.9035 79.3257 40.1907 75.531 40.1907 56.5397C40.1907 40.9461 54.6536 35.4144 67.0394 35.4144C80.5887 35.4144 89.3992 39.9051 93.9552 49.1367L80.8597 53.3037C78.1127 48.6086 73.4227 46.1266 67.2709 46.1266C58.2868 46.1266 55.9113 52.3329 55.9113 55.6147C55.9113 60.1359 60.4095 64.0984 67.3683 65.7194C76.0966 67.7495 82.2271 69.3095 85.8025 70.8175C91.467 73.2079 97.5183 80.0889 97.5183 92.2328Z" fill="white"></path>
  <path opacity="0.2" d="M67.0003 31.9556C71.878 31.9556 75.8321 27.992 75.8321 23.1026C75.8321 18.2132 71.878 14.2495 67.0003 14.2495C62.1226 14.2495 58.1685 18.2132 58.1685 23.1026C58.1685 27.992 62.1226 31.9556 67.0003 31.9556Z" fill="#7FBA00"></path>
  <path opacity="0.2" d="M67.0003 135.75C71.878 135.75 75.8321 131.787 75.8321 126.897C75.8321 122.008 71.878 118.044 67.0003 118.044C62.1226 118.044 58.1685 122.008 58.1685 126.897C58.1685 131.787 62.1226 135.75 67.0003 135.75Z" fill="#7FBA00"></path>
  <path opacity="0.2" d="M97.5183 92.2328C97.5183 105.186 84.7031 114.585 67.0425 114.585C51.5168 114.585 41.7835 108.721 37.3188 96.6624L52.4761 93.8019C54.4374 98.0484 58.768 102.896 68.3064 102.896C77.8508 102.896 81.4079 97.1509 81.4079 93.5303C81.4079 85.999 72.3477 83.3889 68.4495 82.6166C51.9035 79.3257 40.1907 75.531 40.1907 56.5397C40.1907 40.9461 54.6536 35.4144 67.0394 35.4144C80.5887 35.4144 89.3992 39.9051 93.9552 49.1367L80.8597 53.3037C78.1127 48.6086 73.4227 46.1266 67.2709 46.1266C58.2868 46.1266 55.9113 52.3329 55.9113 55.6147C55.9113 60.1359 60.4095 64.0984 67.3683 65.7194C76.0966 67.7495 82.2271 69.3095 85.8025 70.8175C91.467 73.2079 97.5183 80.0889 97.5183 92.2328Z" fill="#7FBA00"></path>
</svg>

<svg xmlns="http://www.w3.org/2000/svg" viewBox="0 0 134 150"><path d="M62.666 1.147L4.437 34.312A8.794 8.794 0 0 0 0 41.957v66.086a8.794 8.794 0 0 0 4.437 7.644l58.23 33.166a8.762 8.762 0 0 0 8.667 0l58.229-33.166a8.793 8.793 0 0 0 4.437-7.644V41.957a8.794 8.794 0 0 0-4.437-7.645L71.333 1.148a8.76 8.76 0 0 0-8.667 0z" fill="#7FBA00"/><path opacity=".4" d="M89.86 11.7L71.33 1.148a8.76 8.76 0 0 0-8.667 0L4.437 34.312A8.794 8.794 0 0 0 0 41.957v66.086a8.794 8.794 0 0 0 4.437 7.644l39.497 22.496L89.859 11.701z" fill="#B8D432"/><path d="M67 31.956c4.878 0 8.832-3.964 8.832-8.853 0-4.89-3.954-8.854-8.832-8.854-4.877 0-8.831 3.964-8.831 8.854 0 4.889 3.954 8.853 8.831 8.853zM67 135.75c4.878 0 8.832-3.963 8.832-8.853 0-4.889-3.954-8.853-8.832-8.853-4.877 0-8.831 3.964-8.831 8.853 0 4.89 3.954 8.853 8.831 8.853zM97.518 92.233c0 12.953-12.815 22.352-30.475 22.352-15.526 0-25.26-5.864-29.724-17.923l15.157-2.86c1.961 4.246 6.292 9.094 15.83 9.094 9.545 0 13.102-5.745 13.102-9.366 0-7.531-9.06-10.141-12.959-10.913-16.545-3.291-28.258-7.086-28.258-26.077 0-15.594 14.463-21.126 26.848-21.126 13.55 0 22.36 4.491 26.916 13.723L80.86 53.304c-2.747-4.695-7.437-7.177-13.59-7.177-8.983 0-11.359 6.206-11.359 9.488 0 4.52 4.498 8.483 11.457 10.104 8.729 2.03 14.86 3.59 18.434 5.099 5.665 2.39 11.716 9.27 11.716 21.415z" fill="#fff"/><path opacity=".2" d="M67 31.956c4.878 0 8.832-3.964 8.832-8.853 0-4.89-3.954-8.854-8.832-8.854-4.877 0-8.831 3.964-8.831 8.854 0 4.889 3.954 8.853 8.831 8.853zM67 135.75c4.878 0 8.832-3.963 8.832-8.853 0-4.889-3.954-8.853-8.832-8.853-4.877 0-8.831 3.964-8.831 8.853 0 4.89 3.954 8.853 8.831 8.853zM97.518 92.233c0 12.953-12.815 22.352-30.475 22.352-15.526 0-25.26-5.864-29.724-17.923l15.157-2.86c1.961 4.246 6.292 9.094 15.83 9.094 9.545 0 13.102-5.745 13.102-9.366 0-7.531-9.06-10.141-12.959-10.913-16.545-3.291-28.258-7.086-28.258-26.077 0-15.594 14.463-21.126 26.848-21.126 13.55 0 22.36 4.491 26.916 13.723L80.86 53.304c-2.747-4.695-7.437-7.177-13.59-7.177-8.983 0-11.359 6.206-11.359 9.488 0 4.52 4.498 8.483 11.457 10.104 8.729 2.03 14.86 3.59 18.434 5.099 5.665 2.39 11.716 9.27 11.716 21.415z" fill="#7FBA00"/></svg>
